X:1
T:Title
%%score { ( 1 4 ) | ( 2 3 ) }
L:1/8
Q:1/4=88
M:2/4
K:F
V:1 treble nm="Grand Piano"
V:4 treble 
V:2 treble 
V:3 treble 
V:1
 AA _A=A | B2 A2 | cc =Bc | dc A2 | [EA]G ^FG | [Ec]2 G2 | GF EF | cA z A | GD EF | [EG]2 [FA]2 | %10
w: Chas.~H.~Gabriel * * *||||||||||
 [GB]A [GB]A | [GB]2 GG | cd cd | [CFc]2 [CFA]2 | [=B,FG]2 [_B,CEG]2 | [A,CF]4 | %16
w: ||||||
 [Fd][DF] [DB][Fd] | [Fc]2 [CFA][CFA] | [CEc][B,E] [A,DF][DFG] | [^CEA]4 | [DFA][D^FA] [DGB][CDA] | %21
w: |||||
 [B,DG]2 [Fd][Fd] | [Fc][=B,F] [CEA][_B,CG] | [A,CF]4 |] %24
w: |||
V:2
 FF [=B,F][CF] | [DF]2 [CF]2 | FF [_A,F][=A,F] | [B,F][A,F] [CF]2 | C[B,E] [A,_E][B,=E] | %5
 G,2 [B,E]2 | .B,2 z2 | [F,F]2 z2 | [G,=B,F]G,- [E,G,-B,][D,G,D] | C,C, C,C, | z[K:treble] ^F z F | %11
 z2 E[K:treble][B,E] | F-[B,F-] [A,F-][B,F] | A,2 F,2 | D,2 C,2 | F,C, .F,,2 | %16
 [B,,B,][B,,B,] [B,,B,][B,,B,] | [F,A,]2 F,F, | C,^C, D,B,, | .A,,2 =B,,^C, | D,D, G,A, | %21
 B,,2 [=B,,_A,][B,,A,] | [C,A,]D, C,C, | F,4 |] %24
V:3
 [F,-C]2 F,2 | F,4 | [F,-A,]2 F,2 | F,4 | C,4 | C,4 | [F,C]-[F,-A,C-] [F,-G,C-][F,A,C] | A,C A,F, | %8
 z [F,=B,] z2 | x4 | C,2[K:treble] C2 | C,4[K:treble] | .A,2 z2 | x4 | x4 | x4 | x4 | x4 | x4 | %19
 z .A,,3 | x4 | x4 | x4 | x4 |] %24
V:4
 x4 | x4 | x4 | x4 | x4 | x4 | x4 | z2 [CF]2 | x4 | C4 | x4 | C4 | x4 | x4 | x4 | x4 | x4 | x4 | %18
 x4 | x4 | x4 | x4 | x4 | x4 |] %24

